X:1
T:Title
%%score { ( 1 3 ) | ( 2 4 5 ) }
L:1/8
Q:1/4=100
M:4/4
K:D
V:1 treble nm="Grand Piano"
V:3 treble 
V:2 bass 
V:4 bass 
V:5 bass 
V:1
 [FA]2 [DF]>[EG] [FA]3 [FA] | z2 c2 z4 | B3 A z EBd |[M:3/4] c6 |[M:1/4] c2 | %5
w: J.~H.~Hall * * * *|||||
[M:4/4] d3 c [Fd]2 [FA]2 | [GB][Bd][Ac][GB] [FA]3 [FA] | [GB]cde d2 c-[Gc] | [Fd]6 z2 | %9
w: ||||
 .[DA]2 AD A2 z z/ [DA]/ | [CEG]2 [EG]2 [EG]2 z2 | z4 G2 z2 | F2 G2 F2 z2 | %13
w: ||||
 .A2 .A>D [FA]2 z z/ [DAd]/ | [DFB]2 [FB]2 [FB]2 [DB]->[DGB] | z4 c2[K:bass][K:treble] c2 | %16
w: |||
 d6 z2 |] %17
w: |
V:2
 [D,D]2 [D,A,]>[D,A,] [D,D]3 [D,D] | [G,DG]2 .[A,E]2[K:bass] [D,A,]3 [D,D] | %2
 [G,D]3 [F,A,D] .[E,A,C]2 [E,^G,E]2 |[M:3/4] [A,E]6 |[M:1/4] [G,A,E]2 | %5
[M:4/4] [F,A,D]3 [E,A,E] [D,A,]2 [D,D]2 | [G,D]2 [G,D]2 [D,D]3 [D,D] | %7
 [G,D][E,E][F,D][K:treble][G,B,G] [A,F]2[K:bass] [A,,A,]2 | [D,A,]6 z2 | z4 z D z2 | z2 C2 C2 z2 | %11
 z2 A,2 [A,E]2 z z/ [E,A,C]/ | [A,D]2 [B,D]2 [A,D]2 z2 | z4 z D[K:bass] z2 | B,6 z2 | %15
 [DF]2 [DF]2[K:bass] [A,E]2 [F,A,G]2 | D,->[D,-D] [D,-C]>[D,-B,] [D,A,]2 z2 |] %17
V:3
 x8 | B2 z G [Fd]3 [FA] | z4 G2 z2 |[M:3/4] x6 |[M:1/4] x2 |[M:4/4] x8 | x8 | z .A3 z2 .E2 | x8 | %9
 x8 | x8 | .[EG]2 .[EG]>A, z z/ G,/ F,>A | x8 | x8 | z4 z2 E2 | %15
 A2 A2 z z/[K:bass] A,,/[K:treble] z z/ E,/ | F>B A>G F2 z2 |] %17
V:4
 x8 | x4[K:bass] x4 | x8 |[M:3/4] x6 |[M:1/4] x2 |[M:4/4] x8 | x8 | x3[K:treble] x3[K:bass] x2 | %8
 x8 | z2 .D2 .D>E, D,>F, | A,6 z2 | A,,6 z2 | D,6 z2 | .F2 .[DF]2 .D>[K:bass]E, D,>F, | %14
 z2 D2 D2 G,>E, | A,4[K:bass] z4 | A,2 z2 z4 |] %17
V:5
 x8 | x4[K:bass] x4 | x8 |[M:3/4] x6 |[M:1/4] x2 |[M:4/4] x8 | x8 | x3[K:treble] x3[K:bass] x2 | %8
 x8 | F,6 z2 | x8 | x8 | x8 | F,6[K:bass] z2 | x8 | x4[K:bass] x4 | x8 |] %17

